icon-themes/colibre_svg/vcl/res/show_whitespace.svg

<svg viewBox="0 0 256 256" xmlns="http://www.w3.org/2000/svg"><path d="m128 16-36 40h24v32h24v-32h24zm-76 72v80h152v-80zm8 8h136v64h-136zm56 72v32h-24l36 40 36-40h-24v-32z"/><path d="m123.35938 8-39.35938 45.84375v10.15625h24v24h8v-32h-24l36-40 36 40h-24v32h8v-24h24v-10.15625l-39.4375-45.84375zm-63.35938 88v64h48 40 48v-64h-48-40zm48 72v24h-24v10.15625l39.35938 45.84375h9.20312l39.4375-45.84375v-10.15625h-24v-24h-8v32h24l-36 40-36-40h24v-32z" fill="#fff"/></svg>

<svg xmlns="http://www.w3.org/2000/svg" viewBox="0 0 256 256">
  <path
     style="fill:#000000"
     d="M 128,16 92,56 h 24 v 32 h 24 V 56 h 24 z M 52,88 v 80 H 204 V 88 Z m 8,8 h 136 v 64 H 60 Z m 56,72 v 32 H 92 l 36,40 36,-40 h -24 v -32 z"
     />
  <path
     style="fill:#ffffff"
     d="M 123.35938,8 84,53.84375 V 64 h 24 v 24 h 8 V 56 H 92 l 36,-40 36,40 h -24 v 32 h 8 V 64 h 24 V 53.84375 L 132.5625,8 Z M 60,96 v 64 h 48 40 48 V 96 h -48 -40 z m 48,72 v 24 H 84 v 10.15625 L 123.35938,248 h 9.20312 L 172,202.15625 V 192 h -24 v -24 h -8 v 32 h 24 l -36,40 -36,-40 h 24 v -32 z"
     />
</svg>
